X:1
T:Wonderful, Unfailing Friend
T:Albert Simpson Reitz, 1918
T:Wonderful, Unfailing Friend
T:Public Domain
T:Public Domain
T:Public Domain
C:Albert Simpson Reitz, 1918
Z:Public Domain
%%score ( 1 2 ) ( 3 4 )
L:1/8
M:4/4
K:Ab
V:1 treble 
V:2 treble 
V:3 bass 
V:4 bass 
V:1
 [CE]2 | [CE][Ec][DB][CA] [B,G][B,B][CA][CF] | [DA]2 [DG]2 z2 [DE]2 | %3
w: 1.~There|nev- er was a tru- er friend than|Je- sus, He|
w: 2.~There|nev- er was a tru- er friend than|Je- sus, My|
w: 3.~There|nev- er was a tru- er friend than|Je- sus, He|
 [DE][Ed][Ec][EB] [DE][DG][DB][F=B] | (EAGF E2) [CE]2 | [CE][Ec][DB][CA] [CG][CB][CA][CF] | %6
w: hears me when my heart for mer- cy|pleads; * * * * And|one knows my bur- dens like my Je-|
w: sor- rows He will al- ways with me|share; * * * * And|He bore His cross, my bless- èd Je-|
w: is my life and strength, my all in|all; * * * * Up-|the strong and lov- ing arms of Je-|
 [B,G]2 [EB]2 z2 [EB]2 | [=DB][DB][A=d][Ac] [GB][FA][EG][DF] | E4- [Ed]2 ||"^Refrain" [Ec]>[=D=B] | %10
w: sus, For He|a- lone can un- der- stand my needs.|||
w: sus, There is|no cross He will not help me bear.|||
w: sus My soul|shall rest, and nev- er, nev- er fail.|||
 [Ec]3 [Ec] [Fd][Ec] [DB]>[C=A] | [Ec]2 [DB]3 [DB][DB][C=A] | [DB]3 [Ec] [Ge][Gd] [GB]>[G=B] | %13
w: |||
w: |||
w: |||
 (AA G>F E2) [Ac]>[A=B] | [Ac]3 [Ac] [_Gc][Gc] [Gd]>[Ge] | [Fe]2 [Fd]2 z2 (F_F) | %16
w: |||
w: |||
w: |||
 [Ec]3 [EA] [=DA][DG] [_DB]>[CA] | (C2 DD C2) |] %18
w: ||
w: ||
w: ||
V:2
 x2 | x8 | x8 | x8 | c6 x2 | x8 | x8 | x8 | E4 x2 || x2 | x8 | x8 | x8 | c6 x2 | x8 | x6 d2 | x8 | %17
w: ||||no|||||||||||||
w: ||||since|||||||||||||
w: ||||on|||||||||||||
 A6 |] %18
w: |
w: |
w: |
V:3
 [A,,A,]2 | [A,,A,][A,,A,][A,,A,][A,,A,] [A,,A,][A,,A,][A,,A,][A,,E,] | [B,,E,]2 E,2 z2 [E,G,]2 | %3
w: ~|~ ~ ~ ~ ~ ~ ~ ~|~ ~ ~|
 [E,G,][E,B,][E,A,][E,G,] [E,G,][E,B,][E,G,][E,G,] | (A,A,A,A, A,2) [A,,A,]2 | %5
w: ~ ~ ~ ~ ~ ~ ~ ~|~ * * * * ~|
 [A,,A,][A,,A,][A,,A,][A,,A,] [A,,A,][A,,A,][A,,A,][A,,E,] | [B,,E,]2 [B,,G,]2 z2 [B,,G,]2 | %7
w: ~ ~ ~ ~ ~ ~ ~ ~|~ ~ ~|
 [B,,A,][B,,A,][B,,B,][B,,B,] [B,,B,][B,,B,][B,,B,][B,,A,] | [E,G,]6 || [A,,A,]>[A,,A,] | %10
w: ~ ~ ~ ~ ~ ~ ~ Won-|der-|ful, un-|
 [A,,A,]3 [A,,A,] [A,,A,][A,,A,] [E,G,]>[E,^F,] | [E,A,]2 [E,G,]3 [E,G,][E,G,][E,^F,] | %12
w: fail- ing friend is Je- sus,|He fills my soul with|
 [E,G,]3 [E,A,] [E,B,][E,E] [E,E]>[E,E] | (EE E>E E2) [A,E]>[A,=D] | %14
w: sing- ing all the day; Won-|der- * * * * ful, e-|
 [A,E]3 [A,E] [A,E][A,E] [A,E]>[A,C] | [D,D]2 [D,D]2 z2 [D,A,]2 | %16
w: nal friend is Je- sus, And|He’ll go with|
 [E,A,]3 [C,A,] [B,,B,][B,,B,] [E,G,]>[A,,A,] | (A,2 E,E, E,2) |] %18
w: me all the way. * *||
V:4
 x2 | x8 | x2 E,2 x4 | x8 | A,,6 x2 | x8 | x8 | x8 | x6 || x2 | x8 | x8 | x8 | A,6 x2 | x8 | x8 | %16
w: ||~||~|||||||||ter-|||
 x8 | A,,6 |] %18
w: ||

